!!!OTL: 638. Der Tannenbaum.
!!!COM: Volksweise
!!!ARE: Europa, Mitteleuropa, Deutschland
!!!SCT: B0638
!!!TXL: @@DE
!!!YEM: Copyright 1995, estate of Helmut Schaffrath.
**kern	**text
*ICvox	*
*Ivox	*
*clefG2	*
*M3/4	*
*k[f#]	*
*G:	*
!LO:TX:a:t=Mäßig.	!
{4d	O
=1	=1
8.g	Tan-
16g	-nen-
4g;	-baum,
4a	o
=2	=2
8.b	Tan-
16b	-nen-
4.b;}	-baum,
{8g	wie
=3	=3
8a	treu
8b	ſind
4cc	dei-
4f#	-ne
=4	=4
4a	Blät-
4g	-ter!
8r}	.
{8b	Du
=5	=5
8dd	grünſt
8b	nicht
4.ee	nur
8dd	ʒur
=6	=6
8.dd	Som-
16cc	-mer-
4.cc}	-ʒeit,
{8cc	nein
=7	=7
8cc	auch
8a	im
4.dd	Win-
8cc	-ter,
=8	=8
8.cc	wenn
16b	es
4b;}	ſchneit.
{4d	O
=9	=9
8.g	Tan-
16g	-nenbaum,
4g;	.
4a	o
=10	=10
8.b	Tannenbaum,
16b	.
4.b;}	.
{8g	wie
=11	=11
8a	treu
8b	ſind
4cc	dei-
4f#	-ne
=12	=12
4a	Blät-
4g}	-ter!
==	==
!!!AGN: Kinder -, Weihnachts - Lied
!!!GTL: Kinderlieder
!!!ONB: ESAC (Essen Associative Code) Database: BOEHME
!!!AMT: simple triple
!!!AIN: vox
!!!EED: Helmut Schaffrath
!!!EEV: 1.0
!!@@COMMENT:"Ernſt Anſchütʒ um 1824. Umdichtung eines Volksliedes, hier für Kinder eingerichtet. Das Volkslied ſ. Liederhort J. 545 ff."
!!@@END:
!!!Text: E. Anschütz
!!!URL-scan: https://archive.org/details/BoehmeVtLieder1895/page/n499/mode/2up
!!!ENC: Anna Maria Matuszewska
!!!EEV: 2024/16/07
*-	*-
